static/logos/livestorm-frame-color.svg

<svg width="100" height="17" viewBox="0 0 100 17" fill="none" xmlns="http://www.w3.org/2000/svg">
<g clip-path="url(#clip0_1_2137)">
<path d="M23.2344 3.17426V14.3313H30.9283V12.1062H25.8356V3.17426H23.2344Z" fill="#12262B"/>
<path d="M32.4777 4.81962C32.7285 5.07033 33.0731 5.1957 33.4806 5.1957C33.888 5.1957 34.2171 5.07033 34.4834 4.81962C34.7342 4.5689 34.8752 4.23982 34.8752 3.8324C34.8752 3.44066 34.7342 3.11159 34.4834 2.86086C34.2171 2.61015 33.888 2.46912 33.4806 2.46912C33.0731 2.46912 32.7285 2.61015 32.4777 2.86086C32.2113 3.11159 32.0859 3.44066 32.0859 3.8324C32.0859 4.23982 32.2113 4.5689 32.4777 4.81962ZM32.321 6.30826V14.3313H34.6402V6.30826H32.321Z" fill="#12262B"/>
<path d="M35.7031 6.30829L38.4924 14.3313H41.8457L44.6351 6.30829H42.2062L40.2475 12.4353H40.0908L38.1477 6.30829H35.7031Z" fill="#12262B"/>
<path d="M47.1155 14.0492C47.7894 14.4096 48.5572 14.582 49.4191 14.582C50.3906 14.582 51.2368 14.3783 51.9576 13.9709C52.6784 13.5634 53.1642 12.9837 53.415 12.2629L51.4405 11.7614C51.2525 12.1062 51.0017 12.3726 50.6727 12.5606C50.3279 12.7643 49.9518 12.8583 49.5131 12.8583C48.9489 12.8583 48.4632 12.7016 48.0871 12.3569C47.7111 12.0279 47.4759 11.5734 47.382 10.9936H53.6813C53.697 10.8839 53.7127 10.6489 53.7127 10.2885C53.7127 9.45795 53.5246 8.72146 53.1642 8.07899C52.8038 7.45219 52.3024 6.95075 51.6442 6.59033C50.9861 6.24559 50.2496 6.05756 49.4034 6.05756C48.5415 6.05756 47.7737 6.24559 47.1155 6.59033C46.4418 6.93507 45.9246 7.43652 45.5486 8.06332C45.1724 8.70579 44.9844 9.44227 44.9844 10.2571C44.9844 11.1033 45.1724 11.8554 45.5486 12.5136C45.9246 13.1717 46.4418 13.6888 47.1155 14.0492ZM51.3465 9.55197H47.3663C47.4603 9.01918 47.6797 8.58043 48.0244 8.26702C48.3692 7.95363 48.8079 7.78125 49.3407 7.78125C49.8735 7.78125 50.3123 7.95363 50.6883 8.2827C51.0487 8.61176 51.2681 9.03486 51.3465 9.55197Z" fill="#12262B"/>
<path d="M55.831 13.8298C56.5049 14.3627 57.445 14.6133 58.636 14.6133C59.8113 14.6133 60.7358 14.3783 61.4096 13.8925C62.0834 13.4224 62.4281 12.7487 62.4281 11.8868C62.4281 11.2913 62.2558 10.8369 61.9424 10.4922C61.629 10.1474 61.2372 9.91238 60.7672 9.77135C60.297 9.63031 59.7642 9.52062 59.1532 9.44227C58.589 9.37959 58.1816 9.33258 57.9466 9.28557C57.7115 9.25423 57.5077 9.17588 57.3198 9.05052C57.1317 8.92516 57.0533 8.75279 57.0533 8.51774C57.0533 8.23568 57.1787 8.00063 57.445 7.82826C57.6958 7.65589 58.0406 7.56187 58.4793 7.56187C58.9494 7.56187 59.3255 7.67156 59.6075 7.89094C59.8896 8.11033 60.0463 8.39237 60.062 8.73711H62.1775C62.1775 8.20434 62.0207 7.71857 61.7073 7.31115C61.394 6.90373 60.9552 6.57466 60.391 6.35528C59.8269 6.1359 59.1845 6.02621 58.4793 6.02621C57.3981 6.02621 56.5363 6.27693 55.8781 6.7627C55.22 7.24847 54.9065 7.89094 54.9065 8.70578C54.9065 9.34825 55.0789 9.83402 55.4237 10.1788C55.7684 10.5235 56.1601 10.7585 56.6303 10.8839C57.1004 11.0093 57.6644 11.1032 58.3539 11.1659C58.9651 11.2286 59.4195 11.3227 59.7173 11.4323C59.9993 11.5421 60.156 11.7614 60.156 12.0906C60.156 12.4039 60.015 12.6389 59.7486 12.8113C59.4822 12.9993 59.1374 13.0778 58.6987 13.0778C58.1345 13.0778 57.6802 12.9524 57.3511 12.686C57.022 12.4352 56.8653 12.0906 56.8653 11.6517H54.8125C54.8125 12.5762 55.1416 13.2971 55.831 13.8298Z" fill="#12262B"/>
<path d="M65.224 13.7986C65.6942 14.3313 66.3366 14.582 67.1515 14.582C67.3865 14.582 67.6529 14.5664 67.9506 14.5194C68.2327 14.4723 68.4991 14.4096 68.7185 14.3313V12.6703C68.405 12.7487 68.123 12.78 67.888 12.78C67.5589 12.78 67.2925 12.686 67.1045 12.4822C66.9164 12.2785 66.8224 11.9965 66.8224 11.6517V8.00061H68.6558V6.30825H66.8224L66.838 3.76971H65.0203L64.5659 6.30825H63.375V8.00061H64.5032V11.7457C64.5032 12.5919 64.7382 13.2814 65.224 13.7986Z" fill="#12262B"/>
<path d="M71.7092 14.065C72.3673 14.4096 73.1508 14.582 74.044 14.582C74.9215 14.582 75.6894 14.4096 76.3632 14.065C77.037 13.7202 77.5541 13.2188 77.9302 12.5762C78.3062 11.9338 78.4943 11.1817 78.4943 10.3198C78.4943 9.47362 78.3062 8.72146 77.9302 8.07899C77.5541 7.43651 77.037 6.93507 76.3632 6.59033C75.6894 6.24559 74.9215 6.05756 74.044 6.05756C73.1508 6.05756 72.3673 6.24559 71.7092 6.59033C71.0354 6.93507 70.5183 7.43651 70.1421 8.07899C69.7661 8.72146 69.5938 9.47362 69.5938 10.3198C69.5938 11.1817 69.7661 11.9338 70.1421 12.5762C70.5183 13.2188 71.0354 13.7202 71.7092 14.065ZM75.564 11.9652C75.1566 12.4039 74.6551 12.6076 74.044 12.6076C73.4172 12.6076 72.9 12.4039 72.5083 11.9652C72.1009 11.5421 71.9128 10.9936 71.9128 10.3198C71.9128 9.66166 72.1009 9.11321 72.5083 8.69012C72.9 8.26702 73.4172 8.04764 74.044 8.04764C74.6551 8.04764 75.1566 8.26702 75.564 8.69012C75.9558 9.11321 76.1595 9.66166 76.1595 10.3198C76.1595 10.9936 75.9558 11.5421 75.564 11.9652Z" fill="#12262B"/>
<path d="M79.8984 6.30826V14.3313H82.2175V10.2258C82.2175 9.61464 82.3743 9.11321 82.6877 8.72146C83.001 8.34538 83.4085 8.14166 83.9256 8.14166C84.098 8.14166 84.3017 8.173 84.5525 8.22001C84.8031 8.28269 85.0225 8.34538 85.2419 8.4394V6.35528C84.9598 6.22992 84.6621 6.15158 84.333 6.15158C83.9099 6.15158 83.5182 6.27693 83.1578 6.49631C82.7974 6.73135 82.531 7.0291 82.3586 7.40518H82.1862V6.30826H79.8984Z" fill="#12262B"/>
<path d="M86.4609 6.30827V14.3313H88.78V9.75568C88.78 9.25424 88.9054 8.83115 89.1875 8.51775C89.4539 8.20435 89.8143 8.04764 90.2844 8.04764C90.7232 8.04764 91.0679 8.20435 91.3343 8.51775C91.585 8.83115 91.726 9.23857 91.726 9.75568V14.3313H94.0608V9.75568C94.0608 9.25424 94.2019 8.84682 94.4839 8.53341C94.766 8.22002 95.1421 8.04764 95.5965 8.04764C96.0353 8.06332 96.3958 8.23569 96.6777 8.54909C96.9598 8.86249 97.1008 9.26991 97.1008 9.75568V14.3313H99.42V9.36392C99.42 8.73712 99.2789 8.15734 99.0283 7.6559C98.7619 7.15445 98.4015 6.77838 97.9471 6.49632C97.477 6.21426 96.9599 6.07323 96.38 6.07323C95.8159 6.07323 95.3145 6.21426 94.8757 6.48065C94.437 6.74704 94.1079 7.10745 93.8571 7.57755H93.7004C93.4811 7.12312 93.152 6.76271 92.6976 6.48065C92.2432 6.19859 91.7574 6.05756 91.2402 6.05756C90.7388 6.05756 90.2844 6.19859 89.877 6.4493C89.4695 6.7157 89.1404 7.06044 88.9211 7.49919H88.7644V6.30827H86.4609Z" fill="#12262B"/>
<path d="M16.8106 8.40498C16.8106 10.7266 16.8885 13.4303 15.1604 15.1642C13.4324 16.898 10.7273 16.8099 8.40566 16.8099C6.08402 16.8099 3.38034 16.8877 1.64647 15.1598C-0.0874121 13.4318 0.000751211 10.7266 0.000751211 8.40498C0.000751211 6.08335 -0.075657 3.37968 1.65235 1.64579C3.38034 -0.0880835 6.08549 7.98291e-05 8.40566 7.98291e-05C10.7258 7.98291e-05 13.431 -0.0763284 15.1648 1.65167C16.8987 3.37968 16.8106 6.08482 16.8106 8.40498Z" fill="#12262B"/>
<path d="M9.35475 4.01144H3.97825C3.5027 4.01144 3.11719 4.39695 3.11719 4.87251C3.11719 5.34806 3.5027 5.73357 3.97825 5.73357H9.35475C9.8303 5.73357 10.2158 5.34806 10.2158 4.87251C10.2158 4.39695 9.8303 4.01144 9.35475 4.01144Z" fill="white"/>
<path d="M11.1125 7.54382H5.73607C5.26053 7.54382 4.875 7.92933 4.875 8.40489C4.875 8.88044 5.26053 9.26595 5.73607 9.26595H11.1125C11.5881 9.26595 11.9736 8.88044 11.9736 8.40489C11.9736 7.92933 11.5881 7.54382 11.1125 7.54382Z" fill="white"/>
<path d="M9.34971 11.0776H7.49388C7.01832 11.0776 6.63281 11.4632 6.63281 11.9387C6.63281 12.4143 7.01832 12.7998 7.49388 12.7998H9.34971C9.82526 12.7998 10.2108 12.4143 10.2108 11.9387C10.2108 11.4632 9.82526 11.0776 9.34971 11.0776Z" fill="white"/>
<path d="M13.6987 4.87251C13.6987 4.39695 13.3131 4.01144 12.8376 4.01144C12.362 4.01144 11.9766 4.39695 11.9766 4.87251C11.9766 5.34806 12.362 5.73357 12.8376 5.73357C13.3131 5.73357 13.6987 5.34806 13.6987 4.87251Z" fill="white"/>
</g>
<defs>
<clipPath id="clip0_1_2137">
<rect width="100" height="16.8113" fill="white"/>
</clipPath>
</defs>
</svg>

<svg xmlns="http://www.w3.org/2000/svg" width="376.471" height="64" fill="none" viewBox="0 0 100 17"><g clip-path="url(#a)"><path fill="#12262B" d="M23.234 3.174v11.157h7.694v-2.225h-5.092V3.174h-2.602ZM32.478 4.82c.25.25.595.376 1.003.376.407 0 .736-.126 1.002-.376.251-.251.392-.58.392-.988 0-.391-.14-.72-.392-.971a1.409 1.409 0 0 0-1.002-.392c-.408 0-.753.141-1.003.392-.267.25-.392.58-.392.971 0 .408.125.737.392.988Zm-.157 1.488v8.023h2.32V6.308h-2.32ZM35.703 6.308l2.79 8.023h3.353l2.79-8.023h-2.43l-1.959 6.127h-.156l-1.943-6.127h-2.445ZM47.115 14.05c.674.36 1.442.532 2.304.532.972 0 1.818-.204 2.539-.611.72-.408 1.206-.987 1.457-1.708l-1.974-.502a1.986 1.986 0 0 1-.768.8c-.345.203-.721.297-1.16.297-.564 0-1.05-.156-1.426-.501-.376-.33-.611-.784-.705-1.363h6.3c.015-.11.03-.345.03-.705 0-.831-.187-1.568-.548-2.21a3.859 3.859 0 0 0-1.52-1.489 4.733 4.733 0 0 0-2.24-.532c-.863 0-1.63.188-2.289.532a3.842 3.842 0 0 0-1.566 1.473c-.377.643-.565 1.38-.565 2.194 0 .846.188 1.598.565 2.257a3.89 3.89 0 0 0 1.566 1.535Zm4.231-4.498h-3.98c.094-.533.314-.972.658-1.285.345-.313.784-.486 1.317-.486.532 0 .971.173 1.347.502.36.329.58.752.658 1.269ZM55.831 13.83c.674.533 1.614.783 2.805.783 1.175 0 2.1-.235 2.774-.72.673-.47 1.018-1.144 1.018-2.006 0-.596-.172-1.05-.486-1.395a2.526 2.526 0 0 0-1.175-.72c-.47-.142-1.003-.251-1.614-.33-.564-.062-.971-.11-1.206-.156a1.447 1.447 0 0 1-.627-.235c-.188-.126-.267-.298-.267-.533 0-.282.126-.517.392-.69.25-.172.596-.266 1.034-.266.47 0 .846.11 1.129.329.282.22.438.501.454.846h2.116c0-.533-.157-1.018-.47-1.426-.314-.407-.753-.736-1.317-.956-.564-.22-1.206-.329-1.912-.329-1.08 0-1.943.25-2.6.737-.659.485-.972 1.128-.972 1.943 0 .642.172 1.128.517 1.473.344.345.736.58 1.206.705s1.034.22 1.724.282c.611.063 1.066.157 1.363.266.282.11.439.33.439.659 0 .313-.141.548-.407.72-.267.188-.612.267-1.05.267-.564 0-1.019-.126-1.348-.392-.329-.25-.486-.595-.486-1.034h-2.053c0 .924.33 1.645 1.019 2.178ZM65.224 13.799c.47.532 1.113.783 1.927.783.236 0 .502-.016.8-.063.282-.047.548-.11.768-.188v-1.66a3.46 3.46 0 0 1-.831.109c-.33 0-.596-.094-.784-.298-.188-.204-.282-.486-.282-.83V8h1.834V6.308h-1.834l.016-2.538H65.02l-.454 2.538h-1.191v1.693h1.128v3.745c0 .846.235 1.535.721 2.053ZM71.71 14.065c.657.345 1.44.517 2.334.517.877 0 1.645-.172 2.32-.517a3.778 3.778 0 0 0 1.566-1.489c.376-.642.564-1.394.564-2.256 0-.846-.188-1.599-.564-2.241a3.779 3.779 0 0 0-1.567-1.489c-.674-.344-1.442-.532-2.319-.532-.893 0-1.677.188-2.335.532a3.78 3.78 0 0 0-1.567 1.489c-.376.642-.548 1.395-.548 2.24 0 .863.172 1.615.548 2.257a3.78 3.78 0 0 0 1.567 1.489Zm3.854-2.1c-.407.439-.909.643-1.52.643-.627 0-1.144-.204-1.536-.643-.407-.423-.595-.971-.595-1.645 0-.658.188-1.207.595-1.63.392-.423.91-.642 1.536-.642.611 0 1.113.219 1.52.642.392.423.596.972.596 1.63 0 .674-.204 1.222-.596 1.645ZM79.898 6.308v8.023h2.32v-4.105c0-.611.156-1.113.47-1.505.313-.376.72-.58 1.238-.58.172 0 .376.032.626.079.251.063.47.125.69.22V6.354a2.205 2.205 0 0 0-.909-.203c-.423 0-.815.125-1.175.344-.36.235-.627.533-.8.91h-.172V6.307h-2.288ZM86.46 6.308v8.023h2.32V9.756c0-.502.125-.925.407-1.238.267-.314.627-.47 1.097-.47.44 0 .784.156 1.05.47.251.313.392.72.392 1.238v4.575h2.335V9.756c0-.502.14-.91.423-1.223a1.446 1.446 0 0 1 1.113-.485c.438.015.799.188 1.08.501.283.313.424.72.424 1.207v4.575h2.319V9.364c0-.627-.141-1.207-.392-1.708a2.971 2.971 0 0 0-1.08-1.16 2.974 2.974 0 0 0-1.568-.423c-.564 0-1.066.141-1.504.408a2.755 2.755 0 0 0-1.019 1.097H93.7a2.594 2.594 0 0 0-1.002-1.097 2.716 2.716 0 0 0-1.458-.423c-.501 0-.956.14-1.363.391a2.681 2.681 0 0 0-.956 1.05h-.157V6.31h-2.303ZM16.81 8.405c0 2.322.079 5.025-1.65 6.76-1.728 1.733-4.433 1.645-6.754 1.645-2.322 0-5.026.078-6.76-1.65C-.087 13.432.001 10.727.001 8.405s-.077-5.025 1.651-6.76C3.38-.087 6.085 0 8.406 0c2.32 0 5.025-.076 6.759 1.652s1.646 4.433 1.646 6.753Z"/><path fill="#fff" d="M9.355 4.011H3.978a.861.861 0 0 0 0 1.723h5.377a.861.861 0 0 0 0-1.723ZM11.113 7.544H5.736a.861.861 0 0 0 0 1.722h5.377a.861.861 0 1 0 0-1.722ZM9.35 11.078H7.494a.861.861 0 0 0 0 1.722H9.35a.861.861 0 1 0 0-1.722ZM13.699 4.873a.861.861 0 1 0-1.723 0 .861.861 0 0 0 1.723 0Z"/></g><defs><clipPath id="a"><path fill="#fff" d="M0 0h100v16.811H0z"/></clipPath></defs></svg>
